X: 464
T: The Mowing of the Hay
N:"Moderate" "collected by F.O'Neill"
N:Irish title: speala.d an feur
B:O'Neill's 464
Z:Transcribed by henrik.norbeck@mailbox.swipnet.se
M:2/4
L:1/8
K:G
B/A/ | G/F/E/D/ GG/A/ | B/e/d/c/ BG/A/ | BA/B/ GG | G3 B |
dd/e/ gf/g/ | ee/d/ BB/d/ | ee/d/ B/A/B/d/ | e3 d |
de/f/ gf/g/ | ee/d/ BA/B/ | ee/d/ B/A/G/F/ | E3 B/A/ |
G/F/E/D/ GG/A/ | Be/d/ BG/A/ | BA/B/ GG | G3 ||


